svgs/sharp-regular/list.svg

<svg xmlns="http://www.w3.org/2000/svg" viewBox="0 0 512 512"><!--! Font Awesome Pro 6.6.0 by @fontawesome - https://fontawesome.com License - https://fontawesome.com/license (Commercial License) Copyright 2024 Fonticons, Inc. --><path d="M112 48L16 48l0 96 96 0 0-96zm72 24l-24 0 0 48 24 0 304 0 24 0 0-48-24 0L184 72zm0 160l-24 0 0 48 24 0 304 0 24 0 0-48-24 0-304 0zm0 160l-24 0 0 48 24 0 304 0 24 0 0-48-24 0-304 0zM16 208l0 96 96 0 0-96-96 0zm96 160l-96 0 0 96 96 0 0-96z"/></svg>

<svg xmlns="http://www.w3.org/2000/svg" viewBox="0 0 512 512"><!--! Font Awesome Pro 6.4.0 by @fontawesome - https://fontawesome.com License - https://fontawesome.com/license (Commercial License) Copyright 2023 Fonticons, Inc. --><path d="M112 48H16v96h96V48zm72 24H160v48h24H488h24V72H488 184zm0 160H160v48h24H488h24V232H488 184zm0 160H160v48h24H488h24V392H488 184zM16 208v96h96V208H16zm96 160H16v96h96V368z"/></svg>
